icons/layout-compact-24.svg

<svg xmlns="http://www.w3.org/2000/svg" viewBox="0 0 24 24"><path d="M23 20H1v-4h22v4zM2 19h20v-2H2v2zm21-5H1v-4h22v4zM2 13h20v-2H2v2zm21-5H1V4h22v4zM2 7h20V5H2v2z"/><path fill="none" d="M0 0h24v24H0z"/></svg>

<?xml version="1.0" encoding="UTF-8"?><svg id="icons" xmlns="http://www.w3.org/2000/svg" viewBox="0 0 24 24"><defs><style>.cls-1{fill:none;}</style></defs><path d="M23,20H1v-4H23v4Zm-21-1H22v-2H2v2Zm21-5H1v-4H23v4ZM2,13H22v-2H2v2Zm21-5H1V4H23v4ZM2,7H22v-2H2v2Z"/><rect class="cls-1" width="24" height="24"/></svg>
